X:1
T:E minor Joseph Stone, 1793
T:Isaac Watts, 1724 Holy Fortitude          86. 86. (C. M.)  
T:Sutton
T:Transcribed from The Columbian Harmony, 1793.
%%score [ 1 2 3 4 ]
L:1/8
Q:1/4=120
M:4/4
K:G
V:1 treble nm="Treble" snm="Tr."
V:2 treble nm="Counter" snm="C."
V:3 treble-8 nm="Tenor" snm="T."
V:4 bass nm="Bass" snm="B."
V:1
 B4 | B6 e2 | d4 d4 | (A2 B2 c2) dc | B4 B4 | B2 c2 B2 B2 | B8 | z4 B4 | G2 G2 G2 B2 | B2 B2 e4 | %10
w: 1.~Am|I a|sol- dier|of~ _ _ the *|cross? A|follo- wer of the|Lamb,|And|shall I fear to|own his cause,|
 (d2 B2) (e4 | B2) c2 B2 B2 | B8 | z8 | B8 | G>A Bc d2 B2 | c2 BA B2 e2 | d2 c2 B2 c2 | d4 B4 | %19
w: Or * blush~|_ to speak his|name?||Must|I * be * car- ried|to the skies On flo-|we- ry beds of|ease, While|
 G2 F2 G2 GA | B2 B2 B2 d2 | d2 c2 B2 B2 | B8 |] %23
w: o- thers fought to *|win the prize, And|sailed through bloo- dy|seas?|
V:2
 E4 | (G4 F2) G2 | G4 G4 | (E2 G2 A2) G2 | F4 E4 | G2 E2 F2 F2 | E8 | z4 G4 | E2 E2 E2 D2 | %9
w: 2.~Are|there * no|foes for|me~ _ _ to|fight? Must|I not stem the|flood?|Is|this dark world a|
 G2 G2 G4 | G4 (E3 F | G2) A2 E2 ^D2 | E8 | z8 | E8 | E2 E2 D2 G2 | E2 D2 G2 G2 | D2 EF G2 FE | %18
w: friend to grace,|To help~ _|_ me on to|God?||Sure,|I must fight if|I would reign; In-|crease my * cou- rage, *|
 D4 E4 | D2 ^C2 D2 D2 | G2 D2 E2 F2 | G2 E2 ^D2 D2 | E8 |] %23
w: Lord; I'll|bear the toil, en-|dure the pain, Sup-|por- ted by thy|word.|
V:3
 B4 | (e4 ^d2) e2 | B4 B4 | (c2 B2 A2) GA | B4 B4 | e2 e2 ^d2 d2 | e8 | z4 e4 | B2 B2 B2 d2 | %9
w: 3.~Thy|saints, * in|all this|glo- * * rious *|war, Shall|con- quer, though they|die;|They|see the tri- umph|
 e2 e2 B4 | B4 (c4 | B2) A2 G2 F2 | E8 | z8 | B8 | B2 B2 B2 d2 | e2 dc B2 B2 | B2 c2 B2 ^A2 | %18
w: from a- far|By faith's~|_ di- scer- ning|eye.||When|that il- lus- trious|day shall * rise And|all thine ar- mies|
 B4 B4 | B2 d2 d2 Bc | d>c BA G2 A2 | B2 c2 B2 F2 | E8 |] %23
w: shine In|robes of vic- tory *|through * the * skies, The|glo- ry shall be|thine.|
V:4
 E,4 | (E,4 B,,2) E,2 | G,4 G,4 | (A,2 G,2 F,2) E,2 | B,,4 E,4 | E,2 A,2 B,2 B,,2 | E,8 | z4 E,4 | %8
 E,2 E,2 E,2 B,,2 | E,2 E,2 E,4 | G,4 (A,4 | G,2) F,2 E,2 B,,2 | E,8 | z8 | E,8 | %15
 E,2 E,2 B,2 G,B, | A,2 B,2 E,2 E,2 | G,2 F,2 E,2 F,2 | B,,4 E,4 | G,2 A,2 B,2 B,A, | %20
"^______________________________________________________________\nEdited by B. C. Johnston, 2016\n  1. These words substituted for original.\n  2. Measure 19, Tenor: second note changed from E to D." G,2 F,2 E,2 D,2 | %21
 G,2 A,2 B,2 B,,2 | E,8 |] %23

